X:1
T:Title
%%score { 1 | 2 }
L:1/8
M:4/4
K:D
V:1 treble nm="Grand Piano"
V:2 bass 
V:1
 z4 z2[Q:1/4=100] D>E | F2 F2 GFED | F2 [FA]2 [FA]2 D>E | F4 [CE]4 |[M:3/4] D6 |[M:1/4] D>E | %6
[M:4/4] F2 F2 GFED | F2 [FA]2 [FA]2 [A,D]>[B,DE] | [DF]4[K:bass] [G,CE]4 |[M:3/4] [F,D]6 | %10
[M:1/4][K:treble] [DFd]>[DAc] |[M:4/4] [DGB]2 [DGB]2 [DGB]>[B,G] [DAc]>[DGB] | %12
 [DFA]2 [DFA]2 [A,DF]2 [DGB]>[DFA] | [CEG]2 [CEG]2 [CEG]>[A,CE] [A,FA]>[A,EG] | %14
 [A,DF]2 [A,EG]2 [DFA]2 [A,DF]>[A,EG] | [FA]2 [FA]2 [GB][FA]GF |[M:9/8] G2 B- B d2- dD>E | %17
[M:4/4] F4 [CE]4 |[M:3/4] D6 |] %19
V:2
 z4 z2 [D,F,]>[D,G,C] | [D,A,D]2 [D,A,D]2 [D,B,D][D,A,D][D,G,C][D,F,] | %2
 [D,A,D]2 [D,D]2 [D,D]2 [F,A,]>[G,B,D] | [A,D]4 [A,,G,]4 |[M:3/4] [D,F,]6 |[M:1/4] [D,F,]>[D,G,C] | %6
[M:4/4] [D,A,D]2 [D,A,D]2 [D,B,D][D,A,D][D,G,C][D,F,] | [D,A,D]2 [D,D]2 [D,D]2 F,>G, | A,4 A,,4 | %9
[M:3/4] D,6 |[M:1/4] D,>D, |[M:4/4] G,2 G,2 G,>G, G,>G, | D,2 D,2 D,2 D,>D, | %13
 A,,2 A,,2 A,,>A,, A,,>A,, | D,2 D,2 D,2 D,>D, | [D,D]2 [D,D]2 [D,D][D,D][D,B,D][D,A,D] | %16
[M:9/8][K:treble] [G,B,D]2 [G,DG]- [G,DG] [G,B,G]2- [G,B,G][K:bass][G,^A,]>[G,A,D] | %17
[M:4/4] [A,D]4 [A,,G,]4 |[M:3/4] [D,F,]6 |] %19

